assets/web/icons/mic-off-solid.svg

<svg width="24" height="24" viewBox="0 0 24 24" fill="none" xmlns="http://www.w3.org/2000/svg">
<path d="M8.00006 7.99998V7.99423L14.8314 14.8255L14.8285 14.8284L16.2427 16.2426L16.2456 16.2398L17.6598 17.654L17.6569 17.6569L20.5001 20.5C20.8906 20.8905 20.8906 21.5237 20.5001 21.9142C20.1096 22.3048 19.4764 22.3048 19.0859 21.9142L16.064 18.8924C15.1448 19.4355 14.1076 19.8 13.0001 19.9381V21C13.0001 21.5523 12.5523 22 12.0001 22C11.4478 22 11.0001 21.5523 11.0001 21V19.9381C7.05375 19.446 4.00006 16.0796 4.00006 12C4.00006 11.4477 4.44778 11 5.00006 11C5.55235 11 6.00006 11.4477 6.00006 12C6.00006 15.3137 8.68635 18 12.0001 18C12.9264 18 13.8036 17.7901 14.5869 17.4153L13.0362 15.8645C12.7057 15.9529 12.3584 16 12.0001 16C9.79092 16 8.00006 14.2091 8.00006 12V10.8284L2.08586 4.9142C1.69534 4.52367 1.69534 3.89051 2.08586 3.49998C2.47639 3.10946 3.10955 3.10946 3.50008 3.49999L8.00006 7.99998Z" fill="currentColor"/>
<path d="M17.4172 14.5829L18.8946 16.0603C19.597 14.8701 20.0001 13.4821 20.0001 12C20.0001 11.4477 19.5523 11 19.0001 11C18.4478 11 18.0001 11.4477 18.0001 12C18.0001 12.9248 17.7909 13.8007 17.4172 14.5829Z" fill="currentColor"/>
<path d="M8.07251 5.23825L15.8658 13.0315C15.9534 12.7024 16.0001 12.3567 16.0001 12V6C16.0001 3.79086 14.2092 2 12.0001 2C10.0514 2 8.4282 3.39344 8.07251 5.23825Z" fill="currentColor"/>
</svg>

<svg xmlns="http://www.w3.org/2000/svg" width="24" height="24" fill="currentColor" viewBox="0 0 24 24">
  <path d="M8 8v-.006l6.831 6.832-.002.002 1.414 1.415.003-.003 1.414 1.414-.003.003L20.5 20.5a1 1 0 0 1-1.414 1.414l-3.022-3.022A7.949 7.949 0 0 1 13 19.938V21a1 1 0 0 1-2 0v-1.062A8.001 8.001 0 0 1 4 12a1 1 0 1 1 2 0 6 6 0 0 0 8.587 5.415l-1.55-1.55A4.005 4.005 0 0 1 8 12v-1.172L2.086 4.914A1 1 0 0 1 3.5 3.5L8 8Zm9.417 6.583 1.478 1.477A7.963 7.963 0 0 0 20 12a1 1 0 0 0-2 0c0 .925-.21 1.8-.583 2.583ZM8.073 5.238l7.793 7.793c.087-.329.134-.674.134-1.031V6a4 4 0 0 0-7.927-.762Z"/>
</svg>
